src/icons/globe.svg

<svg viewBox="0 0 28 28" fill="none" xmlns="http://www.w3.org/2000/svg">
<path d="M13.9997 25.0147C17.1794 25.0147 19.7759 20.316 19.7759 14.0168C19.7759 7.68332 17.1909 2.98465 13.9997 2.98465C10.8085 2.98465 8.22355 7.68332 8.22355 14.0168C8.22355 20.316 10.82 25.0147 13.9997 25.0147ZM13.9997 4.36796C16.2415 4.36796 18.2432 8.82655 18.2432 14.0168C18.2432 19.1156 16.2415 23.6199 13.9997 23.6199C11.7579 23.6199 9.75623 19.1156 9.75623 14.0168C9.75623 8.82655 11.7579 4.36796 13.9997 4.36796ZM13.2562 3.1447V24.7974H14.7546V3.1447H13.2562ZM13.9997 18.2925C10.4768 18.2925 7.35426 19.2185 5.75295 20.6933L6.90818 21.6422C8.41799 20.4418 10.8771 19.7901 13.9997 19.7901C17.1222 19.7901 19.5814 20.4418 21.0913 21.6422L22.2464 20.6933C20.6451 19.2185 17.5226 18.2925 13.9997 18.2925ZM24.5569 13.2394H3.44249V14.737H24.5569V13.2394ZM13.9997 9.75257C17.5226 9.75257 20.6451 8.82655 22.2464 7.35178L21.0913 6.40291C19.5814 7.59186 17.1222 8.25493 13.9997 8.25493C10.8771 8.25493 8.41799 7.59186 6.90818 6.40291L5.75295 7.35178C7.35426 8.82655 10.4768 9.75257 13.9997 9.75257ZM13.9997 25.6548C20.3821 25.6548 25.6663 20.3618 25.6663 13.9939C25.6663 7.61472 20.3707 2.33301 13.9883 2.33301C7.61733 2.33301 2.33301 7.61472 2.33301 13.9939C2.33301 20.3618 7.62877 25.6548 13.9997 25.6548ZM13.9997 24.1001C8.47518 24.1001 3.88857 19.5158 3.88857 13.9939C3.88857 8.47215 8.46374 3.8878 13.9883 3.8878C19.5128 3.8878 24.1108 8.47215 24.1108 13.9939C24.1108 19.5158 19.5242 24.1001 13.9997 24.1001Z" fill="currentColor"/>
</svg>

<svg viewBox="0 0 28 28" fill="none" xmlns="http://www.w3.org/2000/svg"><path d="M14 25.015c3.18 0 5.776-4.699 5.776-10.998 0-6.334-2.585-11.032-5.776-11.032S8.224 7.683 8.224 14.017c0 6.299 2.596 10.998 5.776 10.998zm0-20.647c2.241 0 4.243 4.459 4.243 9.649 0 5.099-2.002 9.603-4.243 9.603-2.242 0-4.244-4.504-4.244-9.603 0-5.19 2.002-9.649 4.244-9.649zm-.744-1.223v21.652h1.499V3.145h-1.499zM14 18.293c-3.523 0-6.646.925-8.247 2.4l1.155.95c1.51-1.201 3.97-1.853 7.092-1.853 3.122 0 5.581.652 7.091 1.852l1.155-.949c-1.6-1.475-4.723-2.4-8.246-2.4zm10.557-5.054H3.442v1.498h21.115v-1.498zM14 9.753c3.523 0 6.645-.926 8.246-2.401l-1.155-.95c-1.51 1.19-3.969 1.853-7.091 1.853-3.123 0-5.582-.663-7.092-1.852l-1.155.949c1.601 1.475 4.724 2.4 8.247 2.4zm0 15.902c6.382 0 11.666-5.293 11.666-11.661 0-6.38-5.295-11.661-11.678-11.661-6.37 0-11.655 5.282-11.655 11.66 0 6.369 5.296 11.662 11.667 11.662zm0-1.555c-5.525 0-10.111-4.584-10.111-10.106s4.575-10.106 10.1-10.106c5.524 0 10.122 4.584 10.122 10.106S19.524 24.1 14 24.1z" fill="currentColor"/></svg>
